icons/wallet-fill.svg

<svg viewBox="0 0 24 24" fill="currentColor" xmlns="http://www.w3.org/2000/svg">
    <path d="M2.00488 8.99979H21.0049C21.5572 8.99979 22.0049 9.4475 22.0049 9.99979V19.9998C22.0049 20.5521 21.5572 20.9998 21.0049 20.9998H3.00488C2.4526 20.9998 2.00488 20.5521 2.00488 19.9998V8.99979ZM3.00488 2.99979H18.0049V6.99979H2.00488V3.99979C2.00488 3.4475 2.4526 2.99979 3.00488 2.99979ZM15.0049 13.9998V15.9998H18.0049V13.9998H15.0049Z"/>
</svg>

<svg xmlns="http://www.w3.org/2000/svg" viewBox="0 0 24 24">
    <g>
        <path fill="none" d="M0 0h24v24H0z"/>
        <path d="M2 9h19a1 1 0 0 1 1 1v10a1 1 0 0 1-1 1H3a1 1 0 0 1-1-1V9zm1-6h15v4H2V4a1 1 0 0 1 1-1zm12 11v2h3v-2h-3z"/>
    </g>
</svg>
